X:1
T:Title
%%score 1 { ( 2 3 ) | ( 4 5 ) }
L:1/8
Q:1/4=83
M:6/8
K:G
V:1 treble nm="Violin, Soprano"
V:2 bass nm="Choir Pad, Keep a Light in the Window"
V:3 bass 
V:4 bass 
V:5 bass 
V:1
 D/D<B_B/ =BAG | EED- D3- | DGG GGA | B A2- A2- A/ z/ | D/D<BA/ BAG | EED- D2- D/ z/ | z FF F c2 | %7
w: By~William~B.~Evans,~1894 * * * * * *|||||||
 F G2- G2- G/ z/ | G/G/FG AAB | ccB- B2- B/ z/ | BeB BBE | G F2- F2- F/ z/ | F/F<GF/ GAG | %13
w: ||||||
 EED- D2- D/ z/ | G/G/A^G A c2 | F G2- G3- | G3 z3 |] %17
w: ||||
V:2
 z2 D .D2 E | .E2 E .E2 E | .E2 E .E2 ^C | .^C2 D .D2 =C | .C2 D .D2 E | .E2 D .D2 D | %6
 .D2 D .D2 C | CG,,D D [B,D]2 | z2 D .D2 D | .D2 D .D2 D | .D2 E .E2 E | .E2 ^D .D2 D | %12
 .^D2 E .E2 E | .E2 D .D2 D | .D2 D .D2 C | CG,,[K:treble]D D [B,D]2- | [B,D]3 z3 |] %17
V:3
 z G,,2 z G,,2 | z G,,2 z G,,2 | z G,,2 z G,,2 | z D,2 z D,2 | z G,,2 z G,,2 | z G,,2 z G,,2 | %6
 z D,2 z D,2 | x6 | z D,2 z F,,2 | z G,,2 z G,,2 | z E,2 z E,2 | z B,,2 z B,,2 | z E,2 z C,2 | %13
 z G,,2 z G,,2 | z D,2 z D,2 | x2[K:treble] x4 | x6 |] %17
V:4
 z2 [G,B,] .[G,B,]2 [G,C] | .[G,C]2 [G,C] .[G,C]2 [G,C] | .[G,C]2 [G,C] .[G,C]2 [G,A,] | %3
 .[G,A,]2 [F,A,] .[F,A,]2 [F,A,] | .[F,A,]2 [G,B,] .[G,B,]2 [G,C] | %5
 .[G,C]2 [G,B,] .[G,B,]2 [G,B,] | .[G,B,]2 [F,A,] .[F,A,]2 [F,A,] | %7
 .[F,A,]2 [D,G,B,] [B,,G,B,] [G,,G,]2 | z2 [F,A,] .[F,A,]2 [A,C] | .[A,C]2 [G,B,] .[G,B,]2 [G,B,] | %10
 .[G,B,]2 [G,B,] .[G,B,]2 [G,B,] | .[G,B,]2 [A,B,] .[A,B,]2 [A,B,] | %12
 .[A,B,]2 [G,B,] .[G,C]2 [G,C] | .[G,C]2 [G,B,] .[G,B,]2 [G,B,] | .[G,B,]2 [F,A,] .[F,A,]2 [F,A,] | %15
 .[F,A,]2 [D,G,B,] [B,,G,B,] [G,,G,]2- | [G,,G,]3 z3 |] %17
V:5
 x6 | x6 | x6 | x6 | x6 | x6 | x6 | x6 | x6 | x6 | z E,,2 z E,,2 | z B,,,2 z B,,,2 | %12
 z E,,2 z C,,2 | x6 | x6 | x6 | x6 |] %17

